X: 9
T: the Thornton Waltz
%C: Mr. Gray
%R: waltz
B: Mr. Gray "24 Country Dances for the Year 1805" p.5 #1
S: http://folkopedia.efdss.org/images/9/92/ThompsGray_24_1805.PDF  2013-12-2
Z: 2013 John Chambers <jc:trillian.mit.edu>
M: 3/8
L: 1/8
K: C
|:\
cGG | ecc | fdd | d>ed/c/ |\
Bdg | g>ag/f/ | ecc | c3 :|
|:\
ge/f/g/e/ | aaa | fd/e/f/d/ | ggg |\
ec/d/e/c/ | ffe | ddd | d3 |
cGG | ecc | geg | a3 |\
c'cc | d>ef/d/ | BG/A/B/G/ | c3 :|
% - - - - - - - - - - - - - - - - - - - - - - - - -
%%begintext align
%% The 1st & 2d Cu: hands across, back again,
%% lead down the mid: up again, Allemande
%% right & left.
%%endtext
